X:29
T:Duke of Glousters New March,The. RHu.029
S:R.Hughes MS,1823,Whitchurch,Shrops.
A:Whitchurch, Shropshire
Z:Neil Brookes 2006
M:4/4
L:1/8
Q:1/2=70
R:March
K:C
G/A/B/|c>Bc>B c>Bc>e|d>cB>A G2f2|e>ge>c d>fd>B|c2c>cc2 c>d|!
e2e>d c>BA>G|G2F2G2c2|B>dB>G B>dB>^G|A2A>AA2|!
|:G/A/B/|c2c>e g>ec>G|A2F>FF2 d>e|f2f>e d2c2|B2G>GG2z/G/A/B/|!
c>Bc>B c>Bc>e|d>cB>A G2f2|e>ge>c d>fd>B|c2c>cc2:|

